!!!SOCIAL_FUNCTION:	songs connected with legends
!!!PDT:	1929
!!!OTL: No_22_My_Feathers_Are_Growing_Longer.krn
!!!REG: Southwest
!!!LANG: Non-Tone
!!!LING_GROUP: Uto-Aztecan
**kern
*staff1
=1-
*clefF4
*k[b-]
*M3/4
2c\
4c\
=2||
*M2/4
(8B-\L
8G\J)
4G\
=3
4c\
4d\
=4
8c\L
8c\J
4c\
=5||
*M3/4
(4B-\
4G\)
8B-\
8r
=6
2c\
(8c\L
8B-\J)
=7
2G\
4B-\
=8
(8B-\L
[8G\J)
4G\]
8G\L
8F\J
=9
8F\L
[8F\J
8F\L]
8D\J
8F\
8r
=10
16G\LK
[8.G\J
4G\]
8A\L
8G\J
=11
4G\
(8F\L
[8D\J)
8D\]
8r
=12
4G\
(4F\
4D\)
=13
(4.F\
8D\)
8F\
8r
==
*-
